Flat-Remix-Dark/apps/scalable/distributor-logo-elementary.svg

<svg xmlns="http://www.w3.org/2000/svg" xmlns:xlink="http://www.w3.org/1999/xlink" width="384pt" height="384pt" version="1.1" viewBox="0 0 384 384"> <defs> <filter id="alpha" width="100%" height="100%" x="0%" y="0%" filterUnits="objectBoundingBox"> <feColorMatrix in="SourceGraphic" type="matrix" values="0 0 0 0 1 0 0 0 0 1 0 0 0 0 1 0 0 0 1 0"/> </filter> <mask id="mask0"> <g filter="url(#alpha)"> <rect width="384" height="384" x="0" y="0" style="fill:rgb(0%,0%,0%);fill-opacity:0.2"/> </g> </mask> <clipPath id="clip1"> <rect width="384" height="384" x="0" y="0"/> </clipPath> <g id="surface5" clip-path="url(#clip1)"> <path style="fill:rgb(100.000%,100.000%,100.000%)" d="M 192 32 C 280.558594 32 351.855469 103.359375 351.855469 192 C 351.855469 193.34375 351.792969 194.664062 351.761719 196 C 349.652344 109.230469 279.21875 40 192.003906 40 C 104.785156 40 34.355469 109.230469 32.242188 196 C 32.210938 194.664062 32.148438 193.34375 32.148438 192 C 32.148438 103.359375 103.445312 32 192.003906 32 Z M 192 32"/> </g> <mask id="mask1"> <g filter="url(#alpha)"> <rect width="384" height="384" x="0" y="0" style="fill:rgb(0%,0%,0%);fill-opacity:0.2"/> </g> </mask> <clipPath id="clip2"> <rect width="384" height="384" x="0" y="0"/> </clipPath> <g id="surface8" clip-path="url(#clip2)"> <path style="fill:rgb(0%,0%,0%)" d="M 32.09375 196 C 32.0625 197.335938 32 198.65625 32 200 C 32 288.640625 103.359375 360 192 360 C 280.640625 360 352 288.640625 352 200 C 352 198.65625 351.9375 197.335938 351.90625 196 C 349.792969 282.769531 279.296875 352 192 352 C 104.703125 352 34.207031 282.769531 32.097656 196 Z M 32.09375 196"/> </g> </defs> <g> <path style="fill:rgb(100.000%,100.000%,100.000%)" d="M 192 32 C 103.359375 32 32 103.359375 32 192 C 32 280.640625 103.359375 352 192 352 C 280.640625 352 352 280.640625 352 192 C 352 103.359375 280.640625 32 192 32 Z M 192 32"/> <use mask="url(#mask0)" xlink:href="#surface5"/> <use mask="url(#mask1)" xlink:href="#surface8"/> <path style="fill:rgb(29.803%,29.803%,29.803%)" d="M 192 72.019531 C 125.726562 72.019531 72 125.746094 72 192.019531 C 72 258.296875 125.726562 312.019531 192 312.019531 C 258.273438 312.019531 312 258.296875 312 192.019531 C 312 125.746094 258.273438 72.019531 192 72.019531 Z M 192 82.019531 C 242.386719 82.019531 284.863281 115.898438 297.886719 162.121094 C 286.667969 185.261719 270.703125 206.09375 251.261719 222.933594 C 241.921875 231.019531 231.726562 238.230469 220.460938 243.308594 C 209.199219 248.382812 196.808594 251.265625 184.476562 250.558594 C 175.207031 250.027344 166.054688 247.445312 157.9375 242.945312 C 179.445312 231.289062 198.851562 215.753906 214.738281 197.144531 C 225.164062 184.933594 234.289062 171.050781 237.800781 155.382812 C 239.554688 147.546875 239.855469 139.34375 238.210938 131.484375 C 236.570312 123.621094 232.9375 116.132812 227.4375 110.28125 C 222.066406 104.566406 215.011719 100.519531 207.449219 98.433594 C 199.886719 96.347656 191.839844 96.183594 184.125 97.59375 C 168.691406 100.414062 154.914062 109.382812 143.863281 120.519531 C 124.382812 140.148438 112.339844 167.84375 114.550781 195.40625 C 115.65625 209.191406 120.273438 222.734375 128.1875 234.070312 C 129.953125 236.601562 131.894531 239.011719 133.976562 241.296875 C 122.445312 245.328125 110.507812 248.203125 98.398438 249.820312 C 88.003906 233.023438 82 213.226562 82 192.019531 C 82 131.265625 131.246094 82.019531 192 82.019531 Z M 192.699219 104.246094 C 200.433594 104.253906 208.21875 106.597656 214.386719 111.257812 C 219.945312 115.457031 224.066406 121.429688 226.398438 127.996094 C 228.734375 134.558594 229.335938 141.6875 228.539062 148.609375 C 226.945312 162.449219 219.960938 175.140625 211.523438 186.234375 C 196.585938 205.867188 176.734375 221.582031 154.648438 232.582031 C 152.390625 233.707031 150.09375 234.777344 147.789062 235.808594 C 142.984375 231.601562 138.863281 226.617188 135.726562 221.058594 C 129.164062 209.445312 127.003906 195.648438 128.273438 182.371094 C 129.546875 169.09375 134.105469 156.296875 140.226562 144.445312 C 147.320312 130.703125 156.996094 117.691406 170.539062 110.21875 C 177.308594 106.484375 184.96875 104.234375 192.699219 104.246094 Z M 301.011719 177.296875 C 301.65625 182.113281 302 187.027344 302 192.019531 C 302 252.773438 252.753906 302.019531 192 302.019531 C 157.882812 302.019531 127.390625 286.488281 107.210938 262.109375 C 119.664062 259.277344 131.835938 255.214844 143.511719 250.046875 C 148.617188 253.933594 154.257812 257.121094 160.25 259.421875 C 177.511719 266.039062 197.109375 265.078125 214.574219 259.03125 C 232.042969 252.984375 247.53125 242.132812 261.039062 229.507812 C 277.125 214.46875 290.6875 196.746094 301.011719 177.296875 Z M 301.011719 177.296875"/> </g> </svg>

<svg width="512" height="512" version="1.1" viewBox="0 0 384 384" xmlns="http://www.w3.org/2000/svg"><defs><clipPath><rect width="384" height="384"/></clipPath><clipPath><rect width="384" height="384"/></clipPath></defs><path d="m192 32c-88.641 0-160 71.359-160 160s71.359 160 160 160 160-71.359 160-160-71.359-160-160-160z" fill="#fff"/><path d="m192 72.02c-66.273 0-120 53.727-120 120 0 66.277 53.727 120 120 120s120-53.723 120-120c0-66.273-53.727-120-120-120zm0 10c50.387 0 92.863 33.879 105.89 80.102-11.219 23.141-27.184 43.973-46.625 60.812-9.3398 8.0859-19.535 15.297-30.801 20.375-11.262 5.0742-23.652 7.957-35.984 7.25-9.2695-0.53125-18.422-3.1133-26.539-7.6133 21.508-11.656 40.914-27.191 56.801-45.801 10.426-12.211 19.551-26.094 23.062-41.762 1.7539-7.8359 2.0547-16.039 0.41016-23.898-1.6406-7.8633-5.2734-15.352-10.773-21.203-5.3711-5.7148-12.426-9.7617-19.988-11.848-7.5625-2.0859-15.609-2.25-23.324-0.83984-15.434 2.8203-29.211 11.789-40.262 22.926-19.48 19.629-31.523 47.324-29.312 74.887 1.1055 13.785 5.7227 27.328 13.637 38.664 1.7656 2.5312 3.707 4.9414 5.7891 7.2266-11.531 4.0312-23.469 6.9062-35.578 8.5234-10.395-16.797-16.398-36.594-16.398-57.801 0-60.754 49.246-110 110-110zm0.69922 22.227c7.7344 0.007812 15.52 2.3516 21.688 7.0117 5.5586 4.1992 9.6797 10.172 12.012 16.738 2.3359 6.5625 2.9375 13.691 2.1406 20.613-1.5938 13.84-8.5781 26.531-17.016 37.625-14.938 19.633-34.789 35.348-56.875 46.348-2.2578 1.125-4.5547 2.1953-6.8594 3.2266-4.8047-4.207-8.9258-9.1914-12.062-14.75-6.5625-11.613-8.7227-25.41-7.4531-38.688 1.2734-13.277 5.832-26.074 11.953-37.926 7.0938-13.742 16.77-26.754 30.312-34.227 6.7695-3.7344 14.43-5.9844 22.16-5.9727zm108.31 73.051c0.64453 4.8164 0.98828 9.7305 0.98828 14.723 0 60.754-49.246 110-110 110-34.117 0-64.609-15.531-84.789-39.91 12.453-2.832 24.625-6.8945 36.301-12.062 5.1055 3.8867 10.746 7.0742 16.738 9.375 17.262 6.6172 36.859 5.6562 54.324-0.39062 17.469-6.0469 32.957-16.898 46.465-29.523 16.086-15.039 29.648-32.762 39.973-52.211z" fill="#4b4b4b"/><path transform="scale(.75)" d="m42.73 251c-0.037866 1.6623-0.064453 3.3283-0.064453 5 0 118.19 95.146 213.33 213.33 213.33 118.19 0 213.33-95.146 213.33-213.33 0-1.6717-0.02658-3.3377-0.06445-5-2.6392 115.86-96.754 208.33-213.27 208.33-116.52 0-210.63-92.475-213.27-208.33z" opacity=".3" stroke-width="1.3333"/><path transform="scale(.75)" d="m256 42.666c-118.19 0-213.33 95.146-213.33 213.33 0 1.6717 0.026587 3.3377 0.064453 5 2.6393-115.86 96.754-208.33 213.27-208.33s210.63 92.475 213.27 208.33c0.03787-1.6623 0.06445-3.3283 0.06445-5 0-118.19-95.146-213.33-213.33-213.33z" fill="#191919" opacity=".1" stroke-width="1.3333"/></svg>
